X:112
T:Callum Breugach
R:Strathspey
B:The Athole Collection
M:C|
L:1/8
K:A Minor
B|G<E ~E>G D>EG>B|A/A/A e>A c>Ae>A|G<E E>G D>EG>B|
c>AB>G A/A/A e:|
^f|g>g a/g/^f/e/ d/c/B/A/ G>B|A/B/c/d/ e>A c>Ae>^f|g>g a/g/^f/e/ d/c/B/A/ G>B|
c>AB>G A/A/A a2|g<be<g d<gB<G|G<gA<a B<bA<B|G<E ~E>G D>EG>B|
c>AB>G A/A/A e||
|:^f|g<e e>g d>eg>a|b<a ag/a/ b<a a>b|g<e e>g d>eg>a|1 b<a a>^g a2b:|2
b<a a>^g a2a||
^f|g>g a/g/^f/e/ d/c/B/A/ G>B|A/B/c/d/ e>A c>Ae>^f| g>g a/g/^f/e/ d/c/B/A/ G>B|
c>AB>G A/A/A a2|g<be<g d<g B>g|G<gA<a B<b A>B|G<E ~E>G D>EG>B|
c>AB>G A/A/A e2||

